src/images/svg/symbols/gold-basket.svg

<svg width="32" height="32" viewBox="0 0 32 32" fill="none" xmlns="http://www.w3.org/2000/svg">
<circle cx="25" cy="5" r="5" fill="#FFDA5B"/>
<path d="M28.1883 1.14778C27.9712 0.967948 27.7387 0.806107 27.493 0.664551L20.665 7.49249C20.8066 7.73817 20.9684 7.9707 21.1483 8.18777L28.1883 1.14778Z" fill="#FDF1CA"/>
<path d="M22.4135 9.27957C22.0524 9.06084 21.7213 8.79771 21.4276 8.49774L28.4982 1.42707C28.7982 1.72077 29.0613 2.05194 29.2801 2.41301L22.4135 9.27957Z" fill="#FDF1CA"/>
<path d="M23.8742 9.87259C23.718 9.83663 23.5646 9.79336 23.4144 9.74315L29.7436 3.41389C29.7938 3.56411 29.8371 3.71751 29.8731 3.87371L23.8742 9.87259Z" fill="#FDF1CA"/>
<g clip-path="url(#clip0_10467_209727)">
<circle cx="25" cy="5" r="4.0625" fill="#FFC329"/>
<path d="M25.0002 9.0624C27.2438 9.0624 29.0627 7.24356 29.0627 4.9999C29.0627 4.31131 28.8914 3.66274 28.589 3.09448C25.9446 3.86008 23.8604 5.94435 23.0947 8.58873C23.663 8.89107 24.3116 9.0624 25.0002 9.0624Z" fill="#F8B712"/>
</g>
<path d="M28.0246 2.28786C27.3055 1.64254 26.3548 1.25 25.3125 1.25C23.0688 1.25 21.25 3.06884 21.25 5.3125C21.25 6.35482 21.6425 7.30546 22.2879 8.02464C21.4589 7.28088 20.9375 6.20134 20.9375 5C20.9375 2.75634 22.7563 0.9375 25 0.9375C26.2013 0.9375 27.2809 1.45895 28.0246 2.28786Z" fill="#DB9E43"/>
<path fill-rule="evenodd" clip-rule="evenodd" d="M26.6894 17.2425C26.8471 16.6114 26.3698 16 25.7192 16H6.28077C5.6302 16 5.15284 16.6114 5.31062 17.2425L7.81062 27.2425C7.92192 27.6877 8.3219 28 8.78077 28H23.2192C23.6781 28 24.0781 27.6877 24.1894 27.2425L26.6894 17.2425ZM11.0001 19C10.4478 19 10.0001 19.4477 10.0001 20V24C10.0001 24.5523 10.4478 25 11.0001 25C11.5524 25 12.0001 24.5523 12.0001 24V20C12.0001 19.4477 11.5524 19 11.0001 19ZM15.0001 20C15.0001 19.4477 15.4478 19 16.0001 19C16.5524 19 17.0001 19.4477 17.0001 20V24C17.0001 24.5523 16.5524 25 16.0001 25C15.4478 25 15.0001 24.5523 15.0001 24V20ZM21.0001 19C20.4478 19 20.0001 19.4477 20.0001 20V24C20.0001 24.5523 20.4478 25 21.0001 25C21.5524 25 22.0001 24.5523 22.0001 24V20C22.0001 19.4477 21.5524 19 21.0001 19Z" fill="#D2D3DA"/>
<path fill-rule="evenodd" clip-rule="evenodd" d="M15.914 7.39517L13.1852 12H18.8148L16.086 7.39517C16.0473 7.32981 15.9527 7.32981 15.914 7.39517ZM21.8 12L17.5145 4.85749C17.1953 4.32551 16.6204 4 16 4C15.3796 4 14.8047 4.32551 14.4855 4.85749L10.2 12H5C4.44772 12 4 12.4477 4 13C4 13.5523 4.44772 14 5 14H9H12H20H23H27C27.5523 14 28 13.5523 28 13C28 12.4477 27.5523 12 27 12H21.8Z" fill="#D2D3DA"/>
<defs>
<clipPath id="clip0_10467_209727">
<rect x="20.9375" y="0.9375" width="8.125" height="8.125" rx="4.0625" fill="white"/>
</clipPath>
</defs>
</svg>

<svg width="32" height="32" fill="none" xmlns="http://www.w3.org/2000/svg"><circle cx="25" cy="5" r="5" fill="#FFDA5B"/><path d="M28.188 1.148a5.014 5.014 0 0 0-.695-.483l-6.828 6.827c.142.246.303.479.483.696l7.04-7.04ZM22.413 9.28a5.02 5.02 0 0 1-.985-.782l7.07-7.07c.3.293.563.624.782.985L22.413 9.28ZM23.874 9.873a4.96 4.96 0 0 1-.46-.13l6.33-6.33c.05.151.093.305.13.46l-6 6Z" fill="#FDF1CA"/><g clip-path="url(#a)"><circle cx="25" cy="5" r="4.063" fill="#FFC329"/><path d="M25 9.062a4.063 4.063 0 0 0 3.589-5.968 8.073 8.073 0 0 0-5.494 5.495A4.045 4.045 0 0 0 25 9.062Z" fill="#F8B712"/></g><path d="M28.025 2.288a4.062 4.062 0 0 0-5.737 5.737 4.062 4.062 0 1 1 5.737-5.737Z" fill="#DB9E43"/><path fill-rule="evenodd" clip-rule="evenodd" d="M26.69 17.242A1 1 0 0 0 25.72 16H6.28a1 1 0 0 0-.97 1.242l2.5 10a1 1 0 0 0 .97.758h14.44a1 1 0 0 0 .97-.758l2.5-10ZM11 19a1 1 0 0 0-1 1v4a1 1 0 1 0 2 0v-4a1 1 0 0 0-1-1Zm4 1a1 1 0 1 1 2 0v4a1 1 0 1 1-2 0v-4Zm6-1a1 1 0 0 0-1 1v4a1 1 0 1 0 2 0v-4a1 1 0 0 0-1-1ZM15.914 7.395 13.185 12h5.63l-2.729-4.605a.1.1 0 0 0-.172 0ZM21.8 12l-4.285-7.143a1.766 1.766 0 0 0-3.03 0L10.2 12H5a1 1 0 1 0 0 2h22a1 1 0 1 0 0-2h-5.2Z" fill="#D2D3DA"/><defs><clipPath id="a"><rect x="20.938" y=".938" width="8.125" height="8.125" rx="4.063" fill="#fff"/></clipPath></defs></svg>
